svg/fluentui-system-icons/ic_fluent_table_offset_20_filled.svg

<svg width="20" height="20" viewBox="0 0 20 20" fill="none" xmlns="http://www.w3.org/2000/svg">
<path d="M5.5 3H12V7H3V5.5C3 4.11929 4.11929 3 5.5 3ZM8 8H17V12H8V8ZM7 12V8H3V12H7ZM3 13H12V17H5.5C4.11929 17 3 15.8807 3 14.5V13ZM13 13V17H14.5C15.8807 17 17 15.8807 17 14.5V13H13ZM13 7H17V5.5C17 4.11929 15.8807 3 14.5 3H13V7Z" fill="#212121"/>
</svg>

<svg xmlns="http://www.w3.org/2000/svg" width="20" height="20"><path d="M5.5 3H12v4H3V5.5A2.5 2.5 0 0 1 5.5 3ZM8 8h9v4H8V8Zm-1 4V8H3v4h4Zm-4 1h9v4H5.5A2.5 2.5 0 0 1 3 14.5V13Zm10 0v4h1.5a2.5 2.5 0 0 0 2.5-2.5V13h-4Zm0-6h4V5.5A2.5 2.5 0 0 0 14.5 3H13v4Z"/></svg>
